X: 100303
T: CAIRDS O' KEITH STRATHSPEY
C: By J. McQueen, Forres
R: strathspey
B: K\"ohler's Violin Repository, v.3, 1885 p.218 #3
F: http://www.archive.org/details/klersviolinrepos03rugg
Z: 2012 John Chambers <jc:trillian.mit.edu>
M: C|
L: 1/8
K: D
|:\
vD2 (F<A) (.d>.e) (d<B) | A<F (d>A) (F<E)E>F |\
D2 (F<A) (.d>.e)(d>A) | (3Bcd (3efg f<d d :|
ug |\
f>(da)>(d b)>(da)>(d | g)>(Af)>uc e2 (e<g) |\
f>(da)>(d b)>(da)>ud | (3ABc (3deg f<dd>g |
f>(da)>(d b)>(da)>(d | g)>(Af)>uA e2 (e<g) |\
(3fga (3cBA (3dcB (3AGF | (3GAB (3ABc (3cBA (3GFE "^D.C."|]

%%sep 2 1 500

